X: 2
P: Kari-Leken
O: Malung
R: Malungs-polska
Z: 1998 by John Chambers <jc@trillian.mit.edu>
M: 3/4
L: 1/8
K: A
|: "A"e>e c2 d2 | ec e2 a2 | "E7"gf ed Bc | (de) "A"c4 \
|| "A"ee c2 d2 | ec e2 a2 | "E7"ga be fg | "A"a2 a4 :|
|: "A"{ef}e>d (c<A) (c<e) | {ef}e>d (c<A) (c<e) \
| "E7"d>c BG Bd | "A"(cB) A4 \
|| "A"{ef}e>d (c<A) (c<e) | {ef}e>d (c<A) (c<e) |
| "E7"d>c BG Bd | "A"(cB) A4 \
|| "A"{ef}e>d (c<A) a2 | "D"gf d2 b2 \
| "A"a>e c2 "E7"(d>c) | ((3BcB) "A"A4 :|
